X: 450
%
U:~=!turn!
U:w=!wedge!
T: Mr. Marshall's Favorite
C:
O:Scotland
B:Keith Norman MacDonald : "The Skye collection of the best reels & strathspeys extant" : 1887
Z:Ralph Palmer
R:Strathspey
M:C
L:1/8
K:A
A,AA>B A/B/c/A/ TE2 | B,B TB>c B>A TF2 | A,AA>B TA>B A/B/c/d/ | (e/f/g/)wa/ (f/e/d/)wc/ TB2 A2 :|
cee>f Te>fec | TBABc ~A>BAE | FfTf>a (f/e/).d/.c/ (d/c/).B/.A/ | (B/c/d/c/) (d/c/B/A/) TB2 A2 |
cee>f Te>fec | B>ABc [C/A/]B/[A,/A/]E/ | FAEA DAHC>f | {/f}Tec {/c}TBA TB2 A2 |]


